X: 384
M: 6/4
L: 1/4
K: F
c |\
|: c |\
fga gab | a>gf e>fg |
f>ef dgf | ecc c2c |\
def c2f | B2f A2f | G>gf e>de | fFF F2 :|

